X:108
T:O'Keeffe's
R:slide
H:Also in A, #93
D:Catherine McEvoy, Caoimh\'in \'O Raghallaigh & M\'iche\'al \'O Raghallaigh
Z:id:hn-slide-108
M:6/8
L:1/8
K:G
DEF |: G2e dBG | F2A E2G | FGA DEF | G2B DEF |
G2e dBG | F2A E2G | FGA DEF |1 G3 G2D :|2 G2A B2c ||
|: d2B g2B | d2c A2B | cBA ege | d2B G2B |
d2B g2B | d2c A2g | fed cBA |1 G2A B2c :|2 G3 g3 ||
|: fed c2e | e2d B2d | fed cBA | G2A B2d |
fed c2e | e2d B2d | fed cBA |1 G3 g3 :|2 G2d ||

